X: 27142
T: Miss McGuinness
R: reel
M: 4/4
K: Bminor
|:ADD/D/D ADFA|ABde fedB|ADD/D/D ADFA|1 BdAF FEEB:|2 BdAF FEE2||
e3f d3A|B/c/dAd BdA2|edef d3A|BdAF FEE2|
e3f d3A|B/c/dAd BdA2|f3de2ed|BABcd3B||

